; generated by Slic3r 1.2.9 on 2018-01-03 at 19:32:19

; external perimeters extrusion width = 0.30mm
; perimeters extrusion width = 0.40mm
; infill extrusion width = 0.40mm
; solid infill extrusion width = 0.40mm
; top infill extrusion width = 0.40mm

M107
M190 S110 ; set bed temperature
M104 S250 ; set temperature
G28 ; home all axes
G1 Z5 F5000 ; lift nozzle
M109 S250 ; wait for temperature to be reached
G21 ; set units to millimeters
G90 ; use absolute coordinates
M82 ; use absolute distances for extrusion
G92 E0
G1 E-1.00000 F1800.00000
G92 E0
G1 Z0.300 F7800.000
G1 X78.712 Y79.062 F7800.000
G1 E1.00000 F1800.00000
G1 X81.984 Y76.474 E1.27871 F1080.000
G1 X83.989 Y75.394 E1.43088
G1 X86.039 Y75.064 E1.56954
G1 X107.685 Y75.064 E3.01563
G1 X110.407 Y75.658 E3.20175
G1 X115.356 Y77.926 E3.56545 F1080.000
G1 X116.613 Y78.682 E3.66343
G1 X117.296 Y79.207 E3.72099
G1 X118.503 Y80.413 E3.83496
G1 X119.027 Y81.097 E3.89251
G1 X119.880 Y82.574 E4.00649
G1 X120.210 Y83.370 E4.06404
G1 X120.651 Y85.018 E4.17801
G1 X120.764 Y85.872 E4.23556
G1 X120.820 Y86.725 E4.29267
G1 X120.820 Y109.275 E5.79914
G1 X120.764 Y110.128 E5.85625
G1 X120.651 Y110.982 E5.91380
G1 X120.210 Y112.630 E6.02777
G1 X119.880 Y113.426 E6.08532
G1 X119.027 Y114.903 E6.19929
G1 X118.503 Y115.587 E6.25684
G1 X117.296 Y116.793 E6.37082
G1 X116.613 Y117.318 E6.42837
G1 X115.356 Y118.074 E6.52636
G1 X110.407 Y120.342 E6.89006
G1 X107.685 Y120.936 E7.07618
G1 X86.039 Y120.936 E8.52227
G1 X83.796 Y120.539 E8.67444
G1 X81.984 Y119.526 E8.81310
G1 X78.712 Y116.938 E9.09181
G1 X77.582 Y115.790 E9.19940
G1 X77.011 Y115.047 E9.26197
G1 X76.158 Y113.570 E9.37594
G1 X75.800 Y112.705 E9.43850
G1 X75.358 Y111.057 E9.55249
G1 X75.236 Y110.128 E9.61506
G1 X75.180 Y109.275 E9.67216
G1 X75.180 Y86.725 E11.17863
G1 X75.236 Y85.872 E11.23572
G1 X75.358 Y84.943 E11.29830
G1 X75.800 Y83.295 E11.41228
G1 X76.158 Y82.430 E11.47485
G1 X77.011 Y80.953 E11.58882
G1 X77.582 Y80.210 E11.65139
G1 X78.680 Y79.095 E11.75597
G1 E10.75597 F1800.00000
G92 E0
G1 X112.286 Y110.576 F7800.000
G1 E1.00000 F1800.00000
G1 X111.905 Y110.869 E1.03209 F540.000
G1 X111.461 Y111.052 E1.06418
G1 X110.984 Y111.115 E1.09627
G1 X110.508 Y111.052 E1.12836
G1 X110.064 Y110.869 E1.16045
G1 X109.683 Y110.576 E1.19254
G1 X109.391 Y110.195 E1.22463
G1 X109.207 Y109.751 E1.25672
G1 X109.144 Y109.273 E1.28894
G1 X109.215 Y108.779 E1.32230
G1 X109.391 Y108.355 E1.35296
G1 X109.683 Y107.974 E1.38505
G1 X110.064 Y107.681 E1.41714
G1 X110.508 Y107.498 E1.44923
G1 X110.963 Y107.438 E1.47989 F540.000
G1 X111.459 Y107.497 E1.51324
G1 X111.905 Y107.681 E1.54546
G1 X112.286 Y107.974 E1.57755
G1 X112.578 Y108.355 E1.60964
G1 X112.762 Y108.799 E1.64173
G1 X112.825 Y109.277 E1.67394
G1 X112.754 Y109.771 E1.70730
G1 X112.578 Y110.195 E1.73796
G1 X112.313 Y110.540 E1.76704
G1 X112.351 Y110.869 F7800.000
G1 E0.76704 F1800.00000
G92 E0
G1 X111.461 Y104.902 F7800.000
G1 E1.00000 F1800.00000
G1 X110.984 Y104.965 E1.03209 F540.000
G1 X110.508 Y104.902 E1.06418
G1 X110.064 Y104.719 E1.09627
G1 X109.683 Y104.426 E1.12836
G1 X109.391 Y104.045 E1.16045
G1 X109.215 Y103.621 E1.19111
G1 X109.147 Y103.146 E1.22314
G1 X109.147 Y92.854 E1.91077
G1 X109.215 Y92.379 E1.94280
G1 X109.391 Y91.955 E1.97346
G1 X109.683 Y91.574 E2.00555
G1 X110.064 Y91.281 E2.03764
G1 X110.508 Y91.098 E2.06973
G1 X110.963 Y91.038 E2.10039 F540.000
G1 X111.459 Y91.097 E2.13375
G1 X111.905 Y91.281 E2.16596
G1 X112.286 Y91.574 E2.19805
G1 X112.578 Y91.955 E2.23014
G1 X112.762 Y92.399 E2.26223
G1 X112.822 Y92.855 E2.29300
G1 X112.822 Y103.146 E2.98050
G1 X112.754 Y103.621 E3.01253
G1 X112.578 Y104.045 E3.04319
G1 X112.286 Y104.426 E3.07528
G1 X111.905 Y104.719 E3.10737
G1 X111.502 Y104.885 E3.13646
G1 X111.371 Y105.188 F7800.000
G1 E2.13646 F1800.00000
G92 E0
G1 X110.984 Y88.565 F7800.000
G1 E1.00000 F1800.00000
G1 X110.508 Y88.502 E1.03209 F540.000
G1 X110.064 Y88.319 E1.06418
G1 X109.683 Y88.026 E1.09627
G1 X109.391 Y87.645 E1.12836
G1 X109.207 Y87.201 E1.16045
G1 X109.144 Y86.723 E1.19267
G1 X109.215 Y86.229 E1.22602
G1 X109.391 Y85.805 E1.25668
G1 X109.683 Y85.424 E1.28877
G1 X110.064 Y85.131 E1.32086
G1 X110.508 Y84.948 E1.35296
G1 X110.963 Y84.888 E1.38361 F540.000
G1 X111.459 Y84.947 E1.41697
G1 X111.905 Y85.131 E1.44918
G1 X112.287 Y85.425 E1.48140
G1 X112.586 Y85.825 E1.51475
G1 X112.762 Y86.249 E1.54541
G1 X112.825 Y86.725 E1.57750
G1 X112.762 Y87.201 E1.60960
G1 X112.578 Y87.645 E1.64169
G1 X112.286 Y88.026 E1.67378
G1 X111.905 Y88.319 E1.70587
G1 X111.461 Y88.502 E1.73796
G1 X111.029 Y88.559 E1.76704
G1 X110.823 Y88.818 F7800.000
G1 E0.76704 F1800.00000
G92 E0
G1 X106.411 Y83.304 F7800.000
G1 E1.00000 F1800.00000
G1 X104.363 Y83.304 E1.13678 F540.000
G1 X104.363 Y82.971 E1.15899
G1 X107.386 Y82.971 E1.36091
G1 X109.724 Y84.042 E1.53273
G1 X108.919 Y84.660 E1.60049
G1 X108.455 Y85.265 E1.65142
G1 X108.174 Y85.943 E1.70049
G1 X108.063 Y86.717 E1.75269
G1 X108.163 Y87.481 E1.80418
G1 X108.455 Y88.185 E1.85512
G1 X108.919 Y88.790 E1.90605
G1 X109.524 Y89.254 E1.95699
G1 X110.229 Y89.546 E2.00792
G1 X110.984 Y89.646 E2.05885
G1 X111.740 Y89.546 E2.10979
G1 X112.445 Y89.254 E2.16072
G1 X112.913 Y88.895 E2.20014
G1 X112.913 Y90.705 E2.32105
G1 X112.445 Y90.346 E2.36047
G1 X111.733 Y90.051 E2.41197
G1 X110.957 Y89.958 E2.46417
G1 X110.229 Y90.054 E2.51323
G1 X109.524 Y90.346 E2.56417
G1 X108.919 Y90.810 E2.61510
G1 X108.455 Y91.415 E2.66603
G1 X108.174 Y92.093 E2.71510
G1 X108.076 Y92.777 E2.76124
G1 X108.076 Y103.223 E3.45911
G1 X108.174 Y103.907 E3.50525
G1 X108.455 Y104.585 E3.55431
G1 X108.919 Y105.190 E3.60524
G1 X109.524 Y105.654 E3.65618
G1 X110.229 Y105.946 E3.70711
G1 X110.984 Y106.046 E3.75805
G1 X111.740 Y105.946 E3.80898
G1 X112.445 Y105.654 E3.85991
G1 X112.913 Y105.295 E3.89934
G1 X112.913 Y107.105 E4.02024
G1 X112.445 Y106.746 E4.05967
G1 X111.733 Y106.451 E4.11116
G1 X110.957 Y106.358 E4.16336
G1 X110.229 Y106.454 E4.21243
G1 X109.524 Y106.746 E4.26336
G1 X108.919 Y107.210 E4.31430
G1 X108.455 Y107.815 E4.36523
G1 X108.174 Y108.493 E4.41429
G1 X108.063 Y109.267 E4.46649
G1 X108.163 Y110.031 E4.51799
G1 X108.455 Y110.735 E4.56892
G1 X108.919 Y111.340 E4.61986
G1 X109.724 Y111.958 E4.68761
G1 X107.386 Y113.029 E4.85943
G1 X104.363 Y113.029 E5.06135
G1 X104.363 Y112.696 E5.08357
G1 X106.411 Y112.696 E5.22035
G1 X106.411 Y83.349 E7.18092
G1 X105.875 Y83.839 F7800.000
G1 X103.828 Y83.839 E7.31770 F540.000
G1 X103.828 Y82.436 E7.41148
G1 X107.503 Y82.436 E7.65698
G1 X111.119 Y84.092 E7.92274
G1 X111.083 Y84.332 E7.93890
G1 X110.368 Y84.426 E7.98706
G1 X109.794 Y84.664 E8.02858
G1 X109.301 Y85.042 E8.07009
G1 X108.923 Y85.535 E8.11160
G1 X108.695 Y86.086 E8.15146
G1 X108.603 Y86.720 E8.19424
G1 X108.685 Y87.341 E8.23610
G1 X108.923 Y87.915 E8.27761
G1 X109.301 Y88.408 E8.31912
G1 X109.794 Y88.786 E8.36063
G1 X110.368 Y89.024 E8.40215
G1 X110.984 Y89.105 E8.44366
G1 X111.601 Y89.024 E8.48517
G1 X112.175 Y88.786 E8.52668
G1 X112.668 Y88.408 E8.56820
G1 X113.046 Y87.915 E8.60971
G1 X113.190 Y87.568 E8.63484
G1 X113.449 Y87.619 E8.65246
G1 X113.449 Y91.981 E8.94385
G1 X113.190 Y92.032 E8.96147
G1 X113.046 Y91.685 E8.98660
G1 X112.668 Y91.192 E9.02811
G1 X112.175 Y90.814 E9.06962
G1 X111.596 Y90.574 E9.11148
G1 X110.960 Y90.498 E9.15426
G1 X110.368 Y90.576 E9.19412
G1 X109.794 Y90.814 E9.23563
G1 X109.301 Y91.192 E9.27714
G1 X108.923 Y91.685 E9.31866
G1 X108.695 Y92.236 E9.35852
G1 X108.611 Y92.815 E9.39760
G1 X108.611 Y103.185 E10.09035
G1 X108.695 Y103.764 E10.12944
G1 X108.923 Y104.315 E10.16930
G1 X109.301 Y104.808 E10.21081
G1 X109.794 Y105.186 E10.25232
G1 X110.368 Y105.424 E10.29383
G1 X110.984 Y105.505 E10.33535
G1 X111.601 Y105.424 E10.37686
G1 X112.175 Y105.186 E10.41837
G1 X112.668 Y104.808 E10.45988
G1 X113.046 Y104.315 E10.50140
G1 X113.190 Y103.968 E10.52652
G1 X113.449 Y104.019 E10.54414
G1 X113.449 Y108.381 E10.83554
G1 X113.190 Y108.432 E10.85316
G1 X113.046 Y108.085 E10.87829
G1 X112.668 Y107.592 E10.91980
G1 X112.175 Y107.214 E10.96131
G1 X111.596 Y106.974 E11.00317
G1 X110.960 Y106.898 E11.04594
G1 X110.368 Y106.976 E11.08581
G1 X109.794 Y107.214 E11.12732
G1 X109.301 Y107.592 E11.16883
G1 X108.923 Y108.085 E11.21034
G1 X108.695 Y108.636 E11.25020
G1 X108.603 Y109.270 E11.29298
G1 X108.685 Y109.891 E11.33484
G1 X108.923 Y110.465 E11.37635
G1 X109.301 Y110.958 E11.41786
G1 X109.794 Y111.336 E11.45938
G1 X110.368 Y111.574 E11.50089
G1 X111.083 Y111.668 E11.54905
G1 X111.119 Y111.908 E11.56521
G1 X107.503 Y113.564 E11.83097
G1 X103.828 Y113.564 E12.07648
G1 X103.828 Y112.161 E12.17026
G1 X105.875 Y112.161 E12.30704
G1 X105.875 Y83.884 E14.19604
G1 X105.339 Y84.375 F7800.000
G1 X103.292 Y84.375 E14.33282 F378.000
G1 X103.292 Y81.900 E14.49817
G1 X107.619 Y81.900 E14.78726
G1 X112.479 Y84.126 E15.14432
G1 X113.104 Y84.606 E15.19697
G1 X113.580 Y85.226 E15.24923
G1 X113.879 Y85.949 E15.30150
G1 X113.984 Y86.745 E15.35510
G1 X113.984 Y109.255 E16.85893
G1 X113.879 Y110.051 E16.91252
G1 X113.580 Y110.774 E16.96479
G1 X113.104 Y111.394 E17.01706
G1 X112.479 Y111.874 E17.06970
G1 X107.619 Y114.100 E17.42677
G1 X103.292 Y114.100 E17.71586
G1 X103.292 Y111.625 E17.88120
G1 X105.339 Y111.625 E18.01798
G1 X105.339 Y84.420 E19.83543
G1 X105.339 Y84.075 F7800.000
G1 X108.975 Y84.269 F7800.000
G1 X108.693 Y83.987 E19.86218 F1080.000
G1 X108.586 Y84.641 E19.90659
G1 X107.290 Y83.344 E20.02952
G1 X106.732 Y83.547 E20.06930
G1 X108.256 Y85.071 E20.21380
G1 X108.011 Y85.587 E20.25208
G1 X106.732 Y84.308 E20.37338
G1 X106.732 Y85.068 E20.42436
G1 X107.832 Y86.168 E20.52866
G1 X107.738 Y86.834 E20.57377
G1 X106.732 Y85.828 E20.66914
G1 X106.732 Y86.589 E20.72012
G1 X107.854 Y87.710 E20.82649
G1 X106.732 Y87.349 E20.90550
G1 X109.449 Y90.066 E21.16319
G1 X109.013 Y90.390 E21.19963
G1 X106.732 Y88.109 E21.41592
G1 X106.732 Y88.870 E21.46691
G1 X108.615 Y90.753 E21.64549
G1 X108.285 Y91.183 E21.68185
G1 X106.732 Y89.630 E21.82912
G1 X106.732 Y90.390 E21.88010
G1 X108.031 Y91.689 E22.00328
G1 X107.841 Y92.259 E22.04356
G1 X106.732 Y91.151 E22.14866
G1 X106.732 Y91.911 E22.19965
G1 X107.754 Y92.933 E22.29655
G1 X107.754 Y93.693 E22.34753
G1 X106.732 Y92.671 E22.44444
G1 X106.732 Y93.432 E22.49542
G1 X107.754 Y94.453 E22.59233
G1 X107.754 Y95.214 E22.64331
G1 X106.732 Y94.192 E22.74022
G1 X106.732 Y94.952 E22.79120
G1 X107.754 Y95.974 E22.88810
G1 X107.754 Y96.734 E22.93909
G1 X106.732 Y95.713 E23.03599
G1 X106.732 Y96.473 E23.08698
G1 X107.754 Y97.495 E23.18388
G1 X107.754 Y98.255 E23.23487
G1 X106.732 Y97.233 E23.33177
G1 X106.732 Y97.994 E23.38276
G1 X107.754 Y99.015 E23.47966
G1 X107.754 Y99.776 E23.53065
G1 X106.732 Y98.754 E23.62755
G1 X106.732 Y99.514 E23.67853
G1 X107.754 Y100.536 E23.77544
G1 X107.754 Y101.296 E23.82642
G1 X106.732 Y100.275 E23.92333
G1 X106.732 Y101.035 E23.97431
G1 X107.754 Y102.057 E24.07122
G1 X107.754 Y102.817 E24.12220
G1 X106.732 Y101.795 E24.21910
G1 X106.732 Y102.556 E24.27009
G1 X107.789 Y103.613 E24.37033
G1 X108.085 Y104.669 E24.44389
G1 X106.732 Y103.316 E24.57221
G1 X106.732 Y104.076 E24.62319
G1 X109.258 Y106.602 E24.86272
G1 X108.828 Y106.932 E24.89908
G1 X106.732 Y104.837 E25.09781
G1 X106.732 Y105.597 E25.14880
G1 X108.473 Y107.338 E25.31390
G1 X108.158 Y107.783 E25.35047
G1 X106.732 Y106.357 E25.48567
G1 X106.732 Y107.118 E25.53666
G1 X107.935 Y108.321 E25.65074
G1 X107.799 Y108.945 E25.69359
G1 X106.732 Y107.878 E25.79478
G1 X106.732 Y108.638 E25.84577
G1 X107.777 Y109.683 E25.94487
G1 X108.038 Y110.704 E26.01551
G1 X106.732 Y109.399 E26.13930
G1 X106.732 Y110.159 E26.19029
G1 X108.691 Y112.118 E26.37604
G1 X108.170 Y112.357 E26.41451
G1 X106.732 Y110.919 E26.55081
G1 X106.732 Y111.680 E26.60180
G1 X107.648 Y112.595 E26.68865
G1 X106.999 Y112.707 E26.73279
G1 X106.732 Y112.440 E26.75813
G1 X109.756 Y106.339 F7800.000
G1 X109.440 Y106.024 E26.78802 F1080.000
G1 X112.329 Y106.013 F7800.000
G1 X112.591 Y106.275 E26.81282 F1080.000
G1 X113.367 Y108.670 F7800.000
G1 X113.403 Y109.238 E26.89340 F360.000
G1 X113.317 Y109.900 E26.98798
G1 X113.078 Y110.484 E27.07732
G1 X112.694 Y110.984 E27.16670
G1 X112.226 Y111.345 E27.25040
G1 X111.364 Y111.733 E27.38430
G1 E26.38430 F1800.00000
G92 E0
G1 X113.364 Y103.729 F7800.000
G1 E1.00000 F1800.00000
G1 X113.403 Y103.166 E1.08002 F360.000
G1 X113.403 Y92.838 E2.54287
G1 X113.367 Y92.270 E2.62343
G1 X112.591 Y89.875 F7800.000
G1 X112.329 Y89.613 E2.64823 F1080.000
G1 X113.367 Y87.330 F7800.000
G1 X113.403 Y86.766 E2.72831 F360.000
G1 X113.326 Y86.139 E2.81774
G1 X113.076 Y85.517 E2.91263
G1 X112.694 Y85.016 E3.00197
G1 X112.226 Y84.655 E3.08568
G1 X111.364 Y84.267 E3.21958
G1 E2.21958 F1800.00000
G92 E0
G1 X86.606 Y107.975 F7800.000
G1 E1.00000 F1800.00000
G1 X86.905 Y108.375 E1.03336 F540.000
G1 X87.081 Y108.799 E1.06402
G1 X87.143 Y109.275 E1.09611
G1 X87.081 Y109.751 E1.12820
G1 X86.897 Y110.195 E1.16029
G1 X86.605 Y110.576 E1.19238
G1 X86.223 Y110.869 E1.22447
G1 X85.780 Y111.052 E1.25656
G1 X85.303 Y111.115 E1.28865
G1 X84.827 Y111.052 E1.32074
G1 X84.383 Y110.869 E1.35283
G1 X84.002 Y110.576 E1.38492
G1 X83.710 Y110.195 E1.41701
G1 X83.526 Y109.751 E1.44910
G1 X83.463 Y109.275 E1.48119
G1 X83.526 Y108.799 E1.51328
G1 X83.710 Y108.355 E1.54538
G1 X84.002 Y107.974 E1.57747
G1 X84.383 Y107.681 E1.60956
G1 X84.827 Y107.498 E1.64165
G1 X85.282 Y107.438 E1.67231 F540.000
G1 X85.778 Y107.497 E1.70566
G1 X86.223 Y107.681 E1.73788
G1 X86.570 Y107.948 E1.76708
G1 X86.899 Y107.912 F7800.000
G1 E0.76708 F1800.00000
G92 E0
G1 X85.303 Y88.565 F7800.000
G1 E1.00000 F1800.00000
G1 X84.827 Y88.502 E1.03209 F540.000
G1 X84.383 Y88.319 E1.06418
G1 X84.003 Y88.027 E1.09618
G1 X83.716 Y87.659 E1.12738
G1 X83.526 Y87.201 E1.16049
G1 X83.463 Y86.723 E1.19270
G1 X83.534 Y86.229 E1.22606
G1 X83.710 Y85.805 E1.25672
G1 X84.002 Y85.424 E1.28881
G1 X84.383 Y85.131 E1.32090
G1 X84.827 Y84.948 E1.35299
G1 X85.282 Y84.888 E1.38365 F540.000
G1 X85.778 Y84.947 E1.41700
G1 X86.223 Y85.131 E1.44922
G1 X86.605 Y85.424 E1.48131
G1 X86.897 Y85.805 E1.51340
G1 X87.081 Y86.249 E1.54549
G1 X87.143 Y86.725 E1.57758
G1 X87.081 Y87.201 E1.60967
G1 X86.897 Y87.645 E1.64176
G1 X86.603 Y88.028 E1.67397
G1 X86.204 Y88.327 E1.70733
G1 X85.780 Y88.502 E1.73799
G1 X85.348 Y88.559 E1.76707
G1 X85.142 Y88.818 F7800.000
G1 E0.76707 F1800.00000
G92 E0
G1 X87.410 Y112.696 F7800.000
G1 E1.00000 F1800.00000
G1 X89.360 Y112.696 E1.13030 F540.000
G1 X89.360 Y113.029 E1.15251
G1 X87.410 Y113.029 E1.28281
G1 X87.410 Y112.741 E1.30202
G1 X87.410 Y83.304 F7800.000
G1 X87.410 Y82.971 E1.32423 F540.000
G1 X89.360 Y82.971 E1.45453
G1 X89.360 Y83.304 E1.47674
G1 X87.455 Y83.304 E1.60403
G1 X87.848 Y83.839 F7800.000
G1 X87.848 Y86.026 E1.75013 F540.000
G1 X87.590 Y86.078 E1.76775
G1 X87.365 Y85.535 E1.80701
G1 X86.987 Y85.042 E1.84853
G1 X86.494 Y84.664 E1.89004
G1 X85.915 Y84.424 E1.93189
G1 X85.279 Y84.348 E1.97467
G1 X84.687 Y84.426 E2.01453
G1 X84.113 Y84.664 E2.05605
G1 X83.620 Y85.042 E2.09756
G1 X83.242 Y85.535 E2.13907
G1 X83.014 Y86.086 E2.17893
G1 X82.922 Y86.720 E2.22171
G1 X83.004 Y87.341 E2.26357
G1 X83.249 Y87.931 E2.30626
G1 X83.623 Y88.411 E2.34688
G1 X84.113 Y88.786 E2.38814
G1 X84.687 Y89.024 E2.42965
G1 X85.303 Y89.105 E2.47116
G1 X85.919 Y89.024 E2.51267
G1 X86.471 Y88.796 E2.55253
G1 X86.983 Y88.412 E2.59531
G1 X87.365 Y87.915 E2.63717
G1 X87.590 Y87.372 E2.67643
G1 X87.848 Y87.424 E2.69405
G1 X87.848 Y108.576 E4.10717
G1 X87.590 Y108.628 E4.12479
G1 X87.374 Y108.108 E4.16240
G1 X86.991 Y107.595 E4.20518
G1 X86.494 Y107.214 E4.24703
G1 X85.915 Y106.974 E4.28889
G1 X85.279 Y106.898 E4.33167
G1 X84.687 Y106.976 E4.37153
G1 X84.113 Y107.214 E4.41304
G1 X83.620 Y107.592 E4.45455
G1 X83.242 Y108.085 E4.49606
G1 X83.004 Y108.659 E4.53758
G1 X82.923 Y109.275 E4.57909
G1 X83.004 Y109.891 E4.62060
G1 X83.242 Y110.465 E4.66211
G1 X83.620 Y110.958 E4.70362
G1 X84.113 Y111.336 E4.74514
G1 X84.687 Y111.574 E4.78665
G1 X85.303 Y111.655 E4.82816
G1 X85.919 Y111.574 E4.86967
G1 X86.494 Y111.336 E4.91119
G1 X86.987 Y110.958 E4.95270
G1 X87.365 Y110.465 E4.99421
G1 X87.590 Y109.922 E5.03347
G1 X87.848 Y109.974 E5.05109
