; generated by Slic3r 1.2.9 on 2018-01-03 at 19:33:24

; external perimeters extrusion width = 0.30mm
; perimeters extrusion width = 0.40mm
; infill extrusion width = 0.40mm
; solid infill extrusion width = 0.40mm
; top infill extrusion width = 0.40mm

M107
M190 S110 ; set bed temperature
M104 S250 ; set temperature
G28 ; home all axes
G1 Z5 F5000 ; lift nozzle
M109 S250 ; wait for temperature to be reached
G21 ; set units to millimeters
G90 ; use absolute coordinates
M82 ; use absolute distances for extrusion
G92 E0
G1 E-1.00000 F1800.00000
G92 E0
G1 Z0.300 F7800.000
G1 X82.904 Y80.210 F7800.000
G1 E1.00000 F1800.00000
G1 X84.034 Y79.062 E1.10759 F1080.000
G1 X87.306 Y76.474 E1.38629
G1 X89.311 Y75.394 E1.53846
G1 X91.361 Y75.064 E1.67713
G1 X100.363 Y75.064 E2.27853
G1 X103.085 Y75.658 E2.46465
G1 X108.034 Y77.926 E2.82835 F1080.000
G1 X109.291 Y78.682 E2.92634
G1 X109.974 Y79.207 E2.98389
G1 X111.181 Y80.413 E3.09787
G1 X111.705 Y81.097 E3.15542
G1 X112.558 Y82.574 E3.26940
G1 X112.888 Y83.370 E3.32694
G1 X113.329 Y85.018 E3.44092
G1 X113.442 Y85.872 E3.49847
G1 X113.498 Y86.725 E3.55558
G1 X113.498 Y109.275 E5.06204
G1 X113.442 Y110.128 E5.11915
G1 X113.329 Y110.982 E5.17670
G1 X112.888 Y112.630 E5.29068
G1 X112.558 Y113.426 E5.34823
G1 X111.705 Y114.903 E5.46220
G1 X111.181 Y115.587 E5.51974
G1 X109.974 Y116.793 E5.63373
G1 X109.291 Y117.318 E5.69127
G1 X108.034 Y118.074 E5.78927
G1 X103.085 Y120.342 E6.15297
G1 X100.363 Y120.936 E6.33909
G1 X91.361 Y120.936 E6.94049
G1 X89.118 Y120.539 E7.09266
G1 X87.306 Y119.526 E7.23132
G1 X84.034 Y116.938 E7.51003
G1 X82.904 Y115.790 E7.61762
G1 X82.333 Y115.047 E7.68018
G1 X81.480 Y113.570 E7.79416
G1 X81.122 Y112.705 E7.85673
G1 X80.680 Y111.057 E7.97071
G1 X80.558 Y110.128 E8.03328
G1 X80.502 Y109.275 E8.09038
G1 X80.502 Y86.725 E9.59685
G1 X80.558 Y85.872 E9.65394
G1 X80.680 Y84.943 E9.71652
G1 X81.122 Y83.296 E9.83049
G1 X81.480 Y82.430 E9.89307
G1 X82.333 Y80.953 E10.00704
G1 X82.876 Y80.245 E10.06661
G1 E9.06661 F1800.00000
G92 E0
G1 X104.964 Y110.576 F7800.000
G1 E1.00000 F1800.00000
G1 X104.583 Y110.869 E1.03209 F540.000
G1 X104.139 Y111.052 E1.06418
G1 X103.663 Y111.115 E1.09627
G1 X103.186 Y111.052 E1.12836
G1 X102.742 Y110.869 E1.16045
G1 X102.361 Y110.576 E1.19254
G1 X102.069 Y110.195 E1.22463
G1 X101.885 Y109.751 E1.25672
G1 X101.822 Y109.273 E1.28894
G1 X101.893 Y108.779 E1.32229
G1 X102.069 Y108.355 E1.35295
G1 X102.361 Y107.974 E1.38504
G1 X102.742 Y107.681 E1.41714
G1 X103.186 Y107.498 E1.44923
G1 X103.641 Y107.438 E1.47989 F540.000
G1 X104.137 Y107.497 E1.51324
G1 X104.583 Y107.681 E1.54546
G1 X104.965 Y107.975 E1.57767
G1 X105.264 Y108.375 E1.61103
G1 X105.440 Y108.799 E1.64169
G1 X105.503 Y109.275 E1.67378
G1 X105.440 Y109.751 E1.70587
G1 X105.256 Y110.195 E1.73796
G1 X104.991 Y110.540 E1.76704
G1 X105.029 Y110.869 F7800.000
G1 E0.76704 F1800.00000
G92 E0
G1 X104.146 Y104.896 F7800.000
G1 E1.00000 F1800.00000
G1 X103.664 Y104.965 E1.03252 F540.000
G1 X103.186 Y104.902 E1.06473
G1 X102.742 Y104.719 E1.09682
G1 X102.361 Y104.426 E1.12891
G1 X102.069 Y104.045 E1.16100
G1 X101.885 Y103.601 E1.19309
G1 X101.825 Y103.145 E1.22386
G1 X101.825 Y92.855 E1.91124
G1 X101.885 Y92.399 E1.94201
G1 X102.069 Y91.955 E1.97410
G1 X102.361 Y91.574 E2.00619
G1 X102.742 Y91.281 E2.03828
G1 X103.186 Y91.098 E2.07037
G1 X103.641 Y91.038 E2.10103 F540.000
G1 X104.137 Y91.097 E2.13439
G1 X104.583 Y91.281 E2.16660
G1 X104.964 Y91.574 E2.19869
G1 X105.256 Y91.955 E2.23078
G1 X105.440 Y92.399 E2.26287
G1 X105.500 Y92.855 E2.29364
G1 X105.500 Y103.145 E2.98102
G1 X105.440 Y103.601 E3.01179
G1 X105.256 Y104.045 E3.04388
G1 X104.964 Y104.426 E3.07597
G1 X104.583 Y104.719 E3.10806
G1 X104.189 Y104.882 E3.13655
G1 X104.058 Y105.183 F7800.000
G1 E2.13655 F1800.00000
G92 E0
G1 X103.663 Y88.565 F7800.000
G1 E1.00000 F1800.00000
G1 X103.186 Y88.502 E1.03209 F540.000
G1 X102.742 Y88.319 E1.06418
G1 X102.362 Y88.027 E1.09618
G1 X102.075 Y87.659 E1.12738
G1 X101.885 Y87.201 E1.16049
G1 X101.822 Y86.723 E1.19270
G1 X101.893 Y86.229 E1.22606
G1 X102.069 Y85.805 E1.25672
G1 X102.361 Y85.424 E1.28881
G1 X102.742 Y85.131 E1.32090
G1 X103.186 Y84.948 E1.35299
G1 X103.641 Y84.888 E1.38365 F540.000
G1 X104.137 Y84.947 E1.41700
G1 X104.583 Y85.131 E1.44922
G1 X104.964 Y85.424 E1.48131
G1 X105.256 Y85.805 E1.51340
G1 X105.440 Y86.249 E1.54549
G1 X105.503 Y86.725 E1.57758
G1 X105.440 Y87.201 E1.60967
G1 X105.256 Y87.645 E1.64176
G1 X104.964 Y88.026 E1.67385
G1 X104.583 Y88.319 E1.70594
G1 X104.139 Y88.502 E1.73803
G1 X103.707 Y88.559 E1.76712
G1 X103.501 Y88.818 F7800.000
G1 X91.815 Y107.214 F7800.000
G1 X92.308 Y107.592 E1.80863 F540.000
G1 X92.687 Y108.085 E1.85014
G1 X92.925 Y108.659 E1.89165
G1 X93.006 Y109.275 E1.93317
G1 X92.925 Y109.891 E1.97468
G1 X92.687 Y110.465 E2.01619
G1 X92.308 Y110.958 E2.05770
G1 X91.815 Y111.336 E2.09922
G1 X91.241 Y111.574 E2.14073
G1 X90.625 Y111.655 E2.18224
G1 X90.009 Y111.574 E2.22375
G1 X89.435 Y111.336 E2.26527
G1 X88.942 Y110.958 E2.30678
G1 X88.564 Y110.465 E2.34829
G1 X88.326 Y109.891 E2.38980
G1 X88.245 Y109.275 E2.43131
G1 X88.326 Y108.659 E2.47283
G1 X88.564 Y108.085 E2.51434
G1 X88.942 Y107.592 E2.55585
G1 X89.435 Y107.214 E2.59736
G1 X90.009 Y106.976 E2.63887
G1 X90.601 Y106.898 E2.67874 F540.000
G1 X91.237 Y106.974 E2.72152
G1 X91.774 Y107.196 E2.76036
G1 X91.545 Y107.681 F7800.000
G1 X91.926 Y107.974 E2.79245 F540.000
G1 X92.219 Y108.355 E2.82454
G1 X92.403 Y108.799 E2.85664
G1 X92.465 Y109.275 E2.88873
G1 X92.403 Y109.751 E2.92082
G1 X92.219 Y110.195 E2.95291
G1 X91.926 Y110.576 E2.98500
G1 X91.545 Y110.869 E3.01709
G1 X91.102 Y111.052 E3.04918
G1 X90.625 Y111.115 E3.08127
G1 X90.149 Y111.052 E3.11336
G1 X89.705 Y110.869 E3.14545
G1 X89.324 Y110.576 E3.17754
G1 X89.032 Y110.195 E3.20963
G1 X88.848 Y109.751 E3.24172
G1 X88.785 Y109.275 E3.27381
G1 X88.848 Y108.799 E3.30590
G1 X89.032 Y108.355 E3.33800
G1 X89.324 Y107.974 E3.37009
G1 X89.705 Y107.681 E3.40218
G1 X90.149 Y107.498 E3.43427
G1 X90.604 Y107.438 E3.46493 F540.000
G1 X91.100 Y107.497 E3.49828
G1 X91.504 Y107.664 E3.52749
G1 X91.811 Y107.543 F7800.000
G1 E2.52749 F1800.00000
G92 E0
G1 X90.625 Y89.105 F7800.000
G1 E1.00000 F1800.00000
G1 X90.009 Y89.024 E1.04151 F540.000
G1 X89.435 Y88.786 E1.08302
G1 X88.938 Y88.405 E1.12488
G1 X88.554 Y87.892 E1.16766
G1 X88.326 Y87.341 E1.20752
G1 X88.245 Y86.725 E1.24903
G1 X88.326 Y86.109 E1.29055
G1 X88.564 Y85.535 E1.33206
G1 X88.942 Y85.042 E1.37357
G1 X89.435 Y84.664 E1.41508
G1 X90.009 Y84.426 E1.45659
G1 X90.601 Y84.348 E1.49646 F540.000
G1 X91.237 Y84.424 E1.53923
G1 X91.815 Y84.664 E1.58109
G1 X92.308 Y85.042 E1.62260
G1 X92.687 Y85.535 E1.66411
G1 X92.925 Y86.109 E1.70563
G1 X93.006 Y86.725 E1.74714
G1 X92.925 Y87.341 E1.78865
G1 X92.687 Y87.915 E1.83016
G1 X92.308 Y88.408 E1.87168
G1 X91.815 Y88.786 E1.91319
G1 X91.241 Y89.024 E1.95470
G1 X90.670 Y89.099 E1.99321
G1 X90.625 Y88.565 F7800.000
G1 X90.149 Y88.502 E2.02530 F540.000
G1 X89.705 Y88.319 E2.05739
G1 X89.323 Y88.025 E2.08960
G1 X89.024 Y87.625 E2.12296
G1 X88.848 Y87.201 E2.15362
G1 X88.785 Y86.725 E2.18571
G1 X88.848 Y86.249 E2.21780
G1 X89.032 Y85.805 E2.24989
G1 X89.324 Y85.424 E2.28198
G1 X89.705 Y85.131 E2.31407
G1 X90.149 Y84.948 E2.34616
G1 X90.604 Y84.888 E2.37682 F540.000
G1 X91.100 Y84.947 E2.41018
G1 X91.545 Y85.131 E2.44239
G1 X91.926 Y85.424 E2.47448
G1 X92.219 Y85.805 E2.50657
G1 X92.403 Y86.249 E2.53866
G1 X92.465 Y86.725 E2.57075
G1 X92.403 Y87.201 E2.60284
G1 X92.219 Y87.645 E2.63493
G1 X91.926 Y88.026 E2.66703
G1 X91.545 Y88.319 E2.69912
G1 X91.102 Y88.502 E2.73121
G1 X90.670 Y88.559 E2.76029
G1 X90.464 Y88.818 F7800.000
G1 E1.76029 F1800.00000
G92 E0
G1 X92.732 Y82.971 F7800.000
G1 E1.00000 F1800.00000
G1 X100.064 Y82.971 E1.48981 F540.000
G1 X102.402 Y84.042 E1.66163
G1 X101.597 Y84.660 E1.72939
G1 X101.133 Y85.265 E1.78032
G1 X100.852 Y85.943 E1.82939
G1 X100.741 Y86.717 E1.88159
G1 X100.841 Y87.481 E1.93308
G1 X101.141 Y88.204 E1.98536
G1 X101.602 Y88.794 E2.03541
G1 X102.202 Y89.254 E2.08592
G1 X102.907 Y89.546 E2.13685
G1 X103.662 Y89.646 E2.18779
G1 X104.418 Y89.546 E2.23872
G1 X105.123 Y89.254 E2.28965
G1 X105.591 Y88.895 E2.32907
G1 X105.591 Y90.705 E2.44998
G1 X105.123 Y90.346 E2.48940
G1 X104.411 Y90.051 E2.54090
G1 X103.635 Y89.958 E2.59310
G1 X102.907 Y90.054 E2.64216
G1 X102.202 Y90.346 E2.69310
G1 X101.597 Y90.810 E2.74403
G1 X101.133 Y91.415 E2.79496
G1 X100.841 Y92.119 E2.84590
G1 X100.754 Y92.785 E2.89078
G1 X100.754 Y103.215 E3.58754
G1 X100.841 Y103.881 E3.63242
G1 X101.133 Y104.585 E3.68335
G1 X101.597 Y105.190 E3.73429
G1 X102.202 Y105.654 E3.78522
G1 X102.907 Y105.946 E3.83616
G1 X103.671 Y106.047 E3.88765
G1 X104.444 Y105.935 E3.93985
G1 X105.123 Y105.654 E3.98892
G1 X105.591 Y105.295 E4.02834
G1 X105.591 Y107.105 E4.14924
G1 X105.123 Y106.746 E4.18867
G1 X104.411 Y106.451 E4.24016
G1 X103.635 Y106.358 E4.29236
G1 X102.907 Y106.454 E4.34143
G1 X102.202 Y106.746 E4.39236
G1 X101.597 Y107.210 E4.44329
G1 X101.133 Y107.815 E4.49423
G1 X100.852 Y108.493 E4.54329
G1 X100.741 Y109.267 E4.59549
G1 X100.841 Y110.031 E4.64699
G1 X101.133 Y110.735 E4.69792
G1 X101.597 Y111.340 E4.74886
G1 X102.402 Y111.958 E4.81661
G1 X100.064 Y113.029 E4.98843
G1 X92.732 Y113.029 E5.47824
G1 X92.732 Y111.286 E5.59465
G1 X93.155 Y110.735 E5.64105
G1 X93.446 Y110.031 E5.69198
G1 X93.546 Y109.275 E5.74292
G1 X93.446 Y108.519 E5.79385
G1 X93.155 Y107.815 E5.84479
G1 X92.732 Y107.264 E5.89119
G1 X92.732 Y88.736 E7.12891
G1 X93.155 Y88.185 E7.17532
G1 X93.446 Y87.481 E7.22625
G1 X93.546 Y86.725 E7.27718
G1 X93.446 Y85.969 E7.32812
G1 X93.155 Y85.265 E7.37905
G1 X92.732 Y84.714 E7.42545
G1 X92.732 Y83.016 E7.53885
G1 X92.196 Y83.973 F7800.000
G1 X92.196 Y82.436 E7.64156 F540.000
G1 X100.181 Y82.436 E8.17496
G1 X103.797 Y84.092 E8.44072
G1 X103.761 Y84.332 E8.45688
G1 X103.046 Y84.426 E8.50505
G1 X102.472 Y84.664 E8.54656
G1 X101.979 Y85.042 E8.58807
G1 X101.601 Y85.535 E8.62959
G1 X101.373 Y86.086 E8.66945
G1 X101.281 Y86.720 E8.71223
G1 X101.363 Y87.341 E8.75408
G1 X101.608 Y87.931 E8.79677
G1 X101.982 Y88.411 E8.83740
G1 X102.472 Y88.786 E8.87865
G1 X103.046 Y89.024 E8.92016
G1 X103.662 Y89.105 E8.96168
G1 X104.279 Y89.024 E9.00319
G1 X104.853 Y88.786 E9.04470
G1 X105.346 Y88.408 E9.08621
G1 X105.724 Y87.915 E9.12772
G1 X105.868 Y87.568 E9.15285
G1 X106.127 Y87.619 E9.17047
G1 X106.127 Y91.981 E9.46186
G1 X105.868 Y92.032 E9.47948
G1 X105.724 Y91.685 E9.50461
G1 X105.346 Y91.192 E9.54612
G1 X104.853 Y90.814 E9.58764
G1 X104.274 Y90.574 E9.62949
G1 X103.638 Y90.498 E9.67227
G1 X103.046 Y90.576 E9.71213
G1 X102.472 Y90.814 E9.75364
G1 X101.979 Y91.192 E9.79516
G1 X101.601 Y91.685 E9.83667
G1 X101.363 Y92.259 E9.87818
G1 X101.289 Y92.820 E9.91600
G1 X101.289 Y103.180 E10.60808
G1 X101.363 Y103.741 E10.64590
G1 X101.601 Y104.315 E10.68741
G1 X101.979 Y104.808 E10.72892
G1 X102.472 Y105.186 E10.77043
G1 X103.046 Y105.424 E10.81195
G1 X103.668 Y105.506 E10.85380
G1 X104.301 Y105.415 E10.89658
G1 X104.853 Y105.186 E10.93644
G1 X105.346 Y104.808 E10.97795
G1 X105.724 Y104.315 E11.01947
G1 X105.868 Y103.968 E11.04459
G1 X106.127 Y104.019 E11.06221
G1 X106.127 Y108.381 E11.35360
G1 X105.868 Y108.432 E11.37122
G1 X105.733 Y108.108 E11.39470
G1 X105.350 Y107.595 E11.43748
G1 X104.853 Y107.214 E11.47934
G1 X104.274 Y106.974 E11.52119
G1 X103.638 Y106.898 E11.56397
G1 X103.046 Y106.976 E11.60383
G1 X102.472 Y107.214 E11.64534
G1 X101.979 Y107.592 E11.68686
G1 X101.601 Y108.085 E11.72837
G1 X101.373 Y108.636 E11.76823
G1 X101.281 Y109.270 E11.81101
G1 X101.363 Y109.891 E11.85286
G1 X101.601 Y110.465 E11.89438
G1 X101.979 Y110.958 E11.93589
G1 X102.472 Y111.336 E11.97740
G1 X103.046 Y111.574 E12.01891
G1 X103.761 Y111.668 E12.06708
G1 X103.797 Y111.908 E12.08324
G1 X100.181 Y113.564 E12.34900
G1 X92.196 Y113.564 E12.88240
G1 X92.196 Y112.027 E12.98511
G1 X90.680 Y112.027 E13.08639
G1 X89.915 Y111.926 E13.13795
G1 X89.253 Y111.652 E13.18581
G1 X88.685 Y111.216 E13.23368
G1 X88.273 Y110.680 E13.27884
G1 X87.974 Y109.980 E13.32965
G1 X87.881 Y109.275 E13.37718
G1 X87.974 Y108.565 E13.42504
G1 X88.248 Y107.903 E13.47291
G1 X88.685 Y107.334 E13.52078
G1 X89.253 Y106.898 E13.56864
G1 X89.915 Y106.624 E13.61651
G1 X90.680 Y106.523 E13.66807
G1 X92.196 Y106.523 E13.76935
G1 X92.196 Y89.477 E14.90813
G1 X90.680 Y89.477 E15.00941
G1 X89.915 Y89.376 E15.06097
G1 X89.253 Y89.102 E15.10883
G1 X88.685 Y88.666 E15.15670
G1 X88.248 Y88.097 E15.20456
G1 X87.974 Y87.435 E15.25243
G1 X87.881 Y86.725 E15.30030
G1 X87.974 Y86.020 E15.34782
G1 X88.273 Y85.320 E15.39864
G1 X88.685 Y84.784 E15.44380
G1 X89.253 Y84.348 E15.49166
G1 X89.915 Y84.074 E15.53953
G1 X90.680 Y83.973 E15.59108
G1 X92.151 Y83.973 E15.68936
G1 X91.661 Y83.438 F7800.000
G1 X91.661 Y81.900 E15.79207 F378.000
G1 X100.297 Y81.900 E16.36906
G1 X105.157 Y84.126 E16.72612
G1 X105.782 Y84.606 E16.77877
G1 X106.258 Y85.226 E16.83103
G1 X106.557 Y85.949 E16.88330
G1 X106.662 Y86.745 E16.93690
G1 X106.662 Y109.255 E18.44073
G1 X106.557 Y110.051 E18.49432
G1 X106.258 Y110.774 E18.54659
G1 X105.782 Y111.394 E18.59886
G1 X105.157 Y111.874 E18.65150
G1 X100.297 Y114.100 E19.00857
G1 X91.661 Y114.100 E19.58555
G1 X91.661 Y112.563 E19.68827
G1 X90.645 Y112.563 E19.75611
G1 X89.775 Y112.448 E19.81472
G1 X88.983 Y112.120 E19.87201
G1 X88.303 Y111.598 E19.92930
G1 X87.807 Y110.952 E19.98366
G1 X87.452 Y110.123 E20.04390
G1 X87.340 Y109.275 E20.10106
G1 X87.452 Y108.425 E20.15835
G1 X87.781 Y107.633 E20.21564
G1 X88.303 Y106.952 E20.27293
G1 X88.983 Y106.430 E20.33021
G1 X89.775 Y106.102 E20.38750
G1 X90.645 Y105.987 E20.44612
G1 X91.661 Y105.987 E20.51396
G1 X91.661 Y90.013 E21.58118
G1 X90.645 Y90.013 E21.64902
G1 X89.775 Y89.898 E21.70763
G1 X88.983 Y89.570 E21.76492
G1 X88.303 Y89.048 E21.82221
G1 X87.781 Y88.367 E21.87950
G1 X87.452 Y87.575 E21.93678
G1 X87.340 Y86.725 E21.99407
G1 X87.452 Y85.877 E22.05124
G1 X87.807 Y85.048 E22.11148
G1 X88.303 Y84.402 E22.16584
G1 X88.983 Y83.880 E22.22312
G1 X89.775 Y83.552 E22.28041
G1 X90.645 Y83.438 E22.33903
G1 X91.616 Y83.438 E22.40386
G1 X91.961 Y83.438 F7800.000
G1 X93.053 Y84.096 F7800.000
G1 X100.691 Y91.734 E23.13357 F1080.000
G1 X100.938 Y91.215 E23.17238
G1 X93.055 Y83.332 E23.92563
G1 X93.782 Y83.293 E23.97484
G1 X101.271 Y90.782 E24.69037
G1 X101.665 Y90.410 E24.72699
G1 X94.548 Y83.293 E25.40699
G1 X95.314 Y83.293 E25.45874
G1 X102.099 Y90.078 E26.10702
G1 X100.556 Y87.769 F7800.000
G1 X96.080 Y83.293 E26.53467 F1080.000
G1 X96.846 Y83.293 E26.58643
G1 X100.420 Y86.867 E26.92791
G1 X100.507 Y86.188 E26.97416
G1 X97.612 Y83.293 E27.25075
G1 X98.378 Y83.293 E27.30251
G1 X100.684 Y85.599 E27.52284
G1 X100.929 Y85.078 E27.56175
G1 X99.144 Y83.293 E27.73226
G1 X99.957 Y83.340 E27.78727
G1 X101.262 Y84.644 E27.91190
G1 X101.371 Y83.987 E27.95688
G1 X101.653 Y84.269 E27.98384
G1 X93.632 Y85.441 F7800.000
G1 X100.505 Y92.314 E28.64052 F1080.000
G1 X100.432 Y93.007 E28.68759
G1 X93.846 Y86.421 E29.31684
G1 X93.801 Y87.142 E29.36565
G1 X100.432 Y93.773 E29.99919
G1 X100.432 Y94.539 E30.05094
G1 X93.645 Y87.752 E30.69945
G1 X93.420 Y88.293 E30.73905
G1 X100.432 Y95.305 E31.40904
G1 X100.432 Y96.071 E31.46079
G1 X93.087 Y88.726 E32.16256
G1 X93.053 Y89.459 E32.21208
G1 X100.432 Y96.837 E32.91708
G1 X100.432 Y97.603 E32.96884
G1 X93.053 Y90.225 E33.67384
G1 X93.053 Y90.991 E33.72559
G1 X100.432 Y98.369 E34.43059
G1 X100.432 Y99.135 E34.48235
G1 X93.053 Y91.757 E35.18735
G1 X93.053 Y92.523 E35.23910
G1 X100.432 Y99.901 E35.94410
G1 X100.432 Y100.668 E35.99586
G1 X93.053 Y93.289 E36.70086
G1 X93.053 Y94.055 E36.75261
G1 X100.432 Y101.434 E37.45761
G1 X100.432 Y102.200 E37.50937
G1 X93.053 Y94.821 E38.21437
G1 X93.053 Y95.587 E38.26612
G1 X100.432 Y102.966 E38.97112
G1 X100.489 Y103.789 E39.02685
G1 X93.053 Y96.353 E39.73727
G1 X93.053 Y97.119 E39.78903
G1 X100.912 Y104.978 E40.53991
G1 X101.810 Y105.875 F7800.000
G1 X102.321 Y106.386 E40.58873 F1080.000
G1 X101.842 Y106.674 E40.62644
G1 X93.053 Y97.885 E41.46618
G1 X93.053 Y98.651 E41.51794
G1 X101.409 Y107.007 E42.31627
