; generated by Slic3r 1.2.9 on 2018-01-03 at 19:27:00

; external perimeters extrusion width = 0.30mm
; perimeters extrusion width = 0.40mm
; infill extrusion width = 0.40mm
; solid infill extrusion width = 0.40mm
; top infill extrusion width = 0.40mm

M107
M190 S110 ; set bed temperature
M104 S250 ; set temperature
G28 ; home all axes
G1 Z5 F5000 ; lift nozzle
M109 S250 ; wait for temperature to be reached
G21 ; set units to millimeters
G90 ; use absolute coordinates
M82 ; use absolute distances for extrusion
G92 E0
G1 E-1.00000 F1800.00000
G92 E0
G1 Z0.300 F7800.000
G1 X85.904 Y82.210 F7800.000
G1 E1.00000 F1800.00000
G1 X87.034 Y81.062 E1.10759 F1080.000
G1 X90.306 Y78.474 E1.38629
G1 X92.311 Y77.394 E1.53846
G1 X94.361 Y77.064 E1.67713
G1 X103.363 Y77.064 E2.27853
G1 X106.085 Y77.658 E2.46465
G1 X111.034 Y79.926 E2.82835 F1080.000
G1 X112.291 Y80.682 E2.92634
G1 X112.974 Y81.207 E2.98389
G1 X114.181 Y82.413 E3.09787
G1 X114.705 Y83.097 E3.15542
G1 X115.558 Y84.574 E3.26940
G1 X115.888 Y85.370 E3.32694
G1 X116.329 Y87.018 E3.44092
G1 X116.442 Y87.872 E3.49847
G1 X116.498 Y88.725 E3.55558
G1 X116.498 Y111.275 E5.06204
G1 X116.442 Y112.128 E5.11915
G1 X116.329 Y112.982 E5.17670
G1 X115.888 Y114.630 E5.29068
G1 X115.558 Y115.426 E5.34823
G1 X114.705 Y116.903 E5.46220
G1 X114.181 Y117.587 E5.51974
G1 X112.974 Y118.793 E5.63373
G1 X112.291 Y119.318 E5.69127
G1 X111.034 Y120.074 E5.78927
G1 X106.085 Y122.342 E6.15297
G1 X103.363 Y122.936 E6.33909
G1 X94.361 Y122.936 E6.94049
G1 X92.118 Y122.539 E7.09266
G1 X90.306 Y121.526 E7.23132
G1 X87.034 Y118.938 E7.51003
G1 X85.904 Y117.790 E7.61762
G1 X85.333 Y117.047 E7.68018
G1 X84.480 Y115.570 E7.79416
G1 X84.122 Y114.705 E7.85673
G1 X83.680 Y113.057 E7.97071
G1 X83.558 Y112.128 E8.03328
G1 X83.502 Y111.275 E8.09038
G1 X83.502 Y88.725 E9.59685
G1 X83.558 Y87.872 E9.65394
G1 X83.680 Y86.943 E9.71652
G1 X84.122 Y85.296 E9.83049
G1 X84.480 Y84.430 E9.89307
G1 X85.333 Y82.953 E10.00704
G1 X85.876 Y82.245 E10.06661
G1 E9.06661 F1800.00000
G92 E0
G1 X107.964 Y112.576 F7800.000
G1 E1.00000 F1800.00000
G1 X107.583 Y112.869 E1.03209 F540.000
G1 X107.139 Y113.052 E1.06418
G1 X106.663 Y113.115 E1.09627
G1 X106.186 Y113.052 E1.12836
G1 X105.742 Y112.869 E1.16045
G1 X105.361 Y112.576 E1.19254
G1 X105.069 Y112.195 E1.22463
G1 X104.885 Y111.751 E1.25672
G1 X104.822 Y111.273 E1.28894
G1 X104.893 Y110.779 E1.32229
G1 X105.069 Y110.355 E1.35296
G1 X105.361 Y109.974 E1.38504
G1 X105.742 Y109.681 E1.41714
G1 X106.186 Y109.498 E1.44923
G1 X106.641 Y109.438 E1.47989 F540.000
G1 X107.137 Y109.497 E1.51324
G1 X107.583 Y109.681 E1.54546
G1 X107.965 Y109.975 E1.57767
G1 X108.264 Y110.375 E1.61103
G1 X108.440 Y110.799 E1.64169
G1 X108.503 Y111.275 E1.67378
G1 X108.440 Y111.751 E1.70587
G1 X108.256 Y112.195 E1.73796
G1 X107.991 Y112.540 E1.76704
G1 X108.029 Y112.869 F7800.000
G1 E0.76704 F1800.00000
G92 E0
G1 X107.146 Y106.896 F7800.000
G1 E1.00000 F1800.00000
G1 X106.664 Y106.965 E1.03252 F540.000
G1 X106.186 Y106.902 E1.06473
G1 X105.742 Y106.719 E1.09682
G1 X105.361 Y106.426 E1.12891
G1 X105.069 Y106.045 E1.16100
G1 X104.885 Y105.601 E1.19309
G1 X104.825 Y105.145 E1.22386
G1 X104.825 Y94.855 E1.91124
G1 X104.885 Y94.399 E1.94201
G1 X105.069 Y93.955 E1.97410
G1 X105.361 Y93.574 E2.00619
G1 X105.742 Y93.281 E2.03828
G1 X106.186 Y93.098 E2.07037
G1 X106.641 Y93.038 E2.10103 F540.000
G1 X107.137 Y93.097 E2.13439
G1 X107.583 Y93.281 E2.16660
G1 X107.964 Y93.574 E2.19869
G1 X108.256 Y93.955 E2.23078
G1 X108.440 Y94.399 E2.26287
G1 X108.500 Y94.855 E2.29364
G1 X108.500 Y105.145 E2.98102
G1 X108.440 Y105.601 E3.01179
G1 X108.256 Y106.045 E3.04388
G1 X107.964 Y106.426 E3.07597
G1 X107.583 Y106.719 E3.10806
G1 X107.189 Y106.882 E3.13655
G1 X107.058 Y107.183 F7800.000
G1 E2.13655 F1800.00000
G92 E0
G1 X106.663 Y90.565 F7800.000
G1 E1.00000 F1800.00000
G1 X106.186 Y90.502 E1.03209 F540.000
G1 X105.742 Y90.319 E1.06418
G1 X105.362 Y90.027 E1.09618
G1 X105.075 Y89.659 E1.12738
G1 X104.885 Y89.201 E1.16049
G1 X104.822 Y88.723 E1.19270
G1 X104.893 Y88.229 E1.22606
G1 X105.069 Y87.805 E1.25672
G1 X105.361 Y87.424 E1.28881
G1 X105.742 Y87.131 E1.32090
G1 X106.186 Y86.948 E1.35299
G1 X106.641 Y86.888 E1.38365 F540.000
G1 X107.137 Y86.947 E1.41700
G1 X107.583 Y87.131 E1.44922
G1 X107.964 Y87.424 E1.48131
G1 X108.256 Y87.805 E1.51340
G1 X108.440 Y88.249 E1.54549
G1 X108.503 Y88.725 E1.57758
G1 X108.440 Y89.201 E1.60967
G1 X108.256 Y89.645 E1.64176
G1 X107.964 Y90.026 E1.67385
G1 X107.583 Y90.319 E1.70594
G1 X107.139 Y90.502 E1.73803
G1 X106.707 Y90.559 E1.76712
G1 X106.501 Y90.818 F7800.000
G1 X94.815 Y109.214 F7800.000
G1 X95.308 Y109.592 E1.80863 F540.000
G1 X95.687 Y110.085 E1.85014
G1 X95.925 Y110.659 E1.89166
G1 X96.006 Y111.275 E1.93317
G1 X95.925 Y111.891 E1.97468
G1 X95.687 Y112.465 E2.01619
G1 X95.308 Y112.958 E2.05770
G1 X94.815 Y113.336 E2.09922
G1 X94.241 Y113.574 E2.14073
G1 X93.625 Y113.655 E2.18224
G1 X93.009 Y113.574 E2.22375
G1 X92.435 Y113.336 E2.26527
G1 X91.942 Y112.958 E2.30678
G1 X91.564 Y112.465 E2.34829
G1 X91.326 Y111.891 E2.38980
G1 X91.245 Y111.275 E2.43131
G1 X91.326 Y110.659 E2.47283
G1 X91.564 Y110.085 E2.51434
G1 X91.942 Y109.592 E2.55585
G1 X92.435 Y109.214 E2.59736
G1 X93.009 Y108.976 E2.63888
G1 X93.601 Y108.898 E2.67874 F540.000
G1 X94.237 Y108.974 E2.72152
G1 X94.774 Y109.196 E2.76036
G1 X94.545 Y109.681 F7800.000
G1 X94.926 Y109.974 E2.79245 F540.000
G1 X95.219 Y110.355 E2.82455
G1 X95.403 Y110.799 E2.85664
G1 X95.465 Y111.275 E2.88873
G1 X95.403 Y111.751 E2.92082
G1 X95.219 Y112.195 E2.95291
G1 X94.926 Y112.576 E2.98500
G1 X94.545 Y112.869 E3.01709
G1 X94.102 Y113.052 E3.04918
G1 X93.625 Y113.115 E3.08127
G1 X93.149 Y113.052 E3.11336
G1 X92.705 Y112.869 E3.14545
G1 X92.324 Y112.576 E3.17754
G1 X92.032 Y112.195 E3.20963
G1 X91.848 Y111.751 E3.24172
G1 X91.785 Y111.275 E3.27381
G1 X91.848 Y110.799 E3.30590
G1 X92.032 Y110.355 E3.33800
G1 X92.324 Y109.974 E3.37009
G1 X92.705 Y109.681 E3.40218
G1 X93.149 Y109.498 E3.43427
G1 X93.604 Y109.438 E3.46493 F540.000
G1 X94.100 Y109.497 E3.49828
G1 X94.504 Y109.664 E3.52749
G1 X94.811 Y109.543 F7800.000
G1 E2.52749 F1800.00000
G92 E0
G1 X93.625 Y91.105 F7800.000
G1 E1.00000 F1800.00000
G1 X93.009 Y91.024 E1.04151 F540.000
G1 X92.435 Y90.786 E1.08302
G1 X91.938 Y90.405 E1.12488
G1 X91.554 Y89.892 E1.16766
G1 X91.326 Y89.341 E1.20752
G1 X91.245 Y88.725 E1.24903
G1 X91.326 Y88.109 E1.29054
G1 X91.564 Y87.535 E1.33206
G1 X91.942 Y87.042 E1.37357
G1 X92.435 Y86.664 E1.41508
G1 X93.009 Y86.426 E1.45659
G1 X93.601 Y86.348 E1.49646 F540.000
G1 X94.237 Y86.424 E1.53923
G1 X94.815 Y86.664 E1.58109
G1 X95.308 Y87.042 E1.62260
G1 X95.687 Y87.535 E1.66411
G1 X95.925 Y88.109 E1.70563
G1 X96.006 Y88.725 E1.74714
G1 X95.925 Y89.341 E1.78865
G1 X95.687 Y89.915 E1.83016
G1 X95.308 Y90.408 E1.87167
G1 X94.816 Y90.786 E1.91319
G1 X94.241 Y91.024 E1.95470
G1 X93.670 Y91.099 E1.99321
G1 X93.625 Y90.565 F7800.000
G1 X93.149 Y90.502 E2.02530 F540.000
G1 X92.705 Y90.319 E2.05739
G1 X92.323 Y90.025 E2.08960
G1 X92.024 Y89.625 E2.12296
G1 X91.848 Y89.201 E2.15362
G1 X91.785 Y88.725 E2.18571
G1 X91.848 Y88.249 E2.21780
G1 X92.032 Y87.805 E2.24989
G1 X92.324 Y87.424 E2.28198
G1 X92.705 Y87.131 E2.31407
G1 X93.149 Y86.948 E2.34616
G1 X93.604 Y86.888 E2.37682 F540.000
G1 X94.100 Y86.947 E2.41018
G1 X94.545 Y87.131 E2.44239
G1 X94.926 Y87.424 E2.47448
G1 X95.219 Y87.805 E2.50657
G1 X95.403 Y88.249 E2.53866
G1 X95.465 Y88.725 E2.57075
G1 X95.403 Y89.201 E2.60284
G1 X95.219 Y89.645 E2.63493
G1 X94.926 Y90.026 E2.66703
G1 X94.545 Y90.319 E2.69912
G1 X94.102 Y90.502 E2.73121
G1 X93.670 Y90.559 E2.76029
G1 X93.464 Y90.818 F7800.000
G1 E1.76029 F1800.00000
G92 E0
G1 X95.732 Y84.971 F7800.000
G1 E1.00000 F1800.00000
G1 X103.064 Y84.971 E1.48981 F540.000
G1 X105.402 Y86.042 E1.66163
G1 X104.597 Y86.660 E1.72939
G1 X104.133 Y87.265 E1.78032
G1 X103.852 Y87.943 E1.82939
G1 X103.741 Y88.717 E1.88159
G1 X103.841 Y89.481 E1.93308
G1 X104.141 Y90.204 E1.98536
G1 X104.602 Y90.794 E2.03541
G1 X105.202 Y91.254 E2.08592
G1 X105.907 Y91.546 E2.13685
G1 X106.662 Y91.646 E2.18779
G1 X107.418 Y91.546 E2.23872
G1 X108.123 Y91.254 E2.28965
G1 X108.591 Y90.895 E2.32907
G1 X108.591 Y92.705 E2.44998
G1 X108.123 Y92.346 E2.48940
G1 X107.411 Y92.051 E2.54090
G1 X106.635 Y91.958 E2.59310
G1 X105.907 Y92.054 E2.64216
G1 X105.202 Y92.346 E2.69310
G1 X104.597 Y92.810 E2.74403
G1 X104.133 Y93.415 E2.79497
G1 X103.841 Y94.119 E2.84590
G1 X103.754 Y94.785 E2.89078
G1 X103.754 Y105.215 E3.58754
G1 X103.841 Y105.881 E3.63242
G1 X104.133 Y106.585 E3.68335
G1 X104.597 Y107.190 E3.73429
G1 X105.202 Y107.654 E3.78522
G1 X105.907 Y107.946 E3.83616
G1 X106.671 Y108.047 E3.88765
G1 X107.444 Y107.935 E3.93985
G1 X108.123 Y107.654 E3.98892
G1 X108.591 Y107.295 E4.02834
G1 X108.591 Y109.105 E4.14924
G1 X108.123 Y108.746 E4.18866
G1 X107.411 Y108.451 E4.24016
G1 X106.635 Y108.358 E4.29236
G1 X105.907 Y108.454 E4.34143
G1 X105.202 Y108.746 E4.39236
G1 X104.597 Y109.210 E4.44329
G1 X104.133 Y109.815 E4.49423
G1 X103.852 Y110.493 E4.54329
G1 X103.741 Y111.267 E4.59549
G1 X103.841 Y112.031 E4.64699
G1 X104.133 Y112.735 E4.69792
G1 X104.597 Y113.340 E4.74886
G1 X105.402 Y113.958 E4.81661
G1 X103.064 Y115.029 E4.98843
G1 X95.732 Y115.029 E5.47824
G1 X95.732 Y113.286 E5.59465
G1 X96.155 Y112.735 E5.64105
G1 X96.446 Y112.031 E5.69198
G1 X96.546 Y111.275 E5.74292
G1 X96.446 Y110.519 E5.79385
G1 X96.155 Y109.815 E5.84479
G1 X95.732 Y109.264 E5.89119
G1 X95.732 Y90.736 E7.12891
G1 X96.155 Y90.185 E7.17531
G1 X96.446 Y89.481 E7.22625
G1 X96.546 Y88.725 E7.27718
G1 X96.446 Y87.969 E7.32812
G1 X96.155 Y87.265 E7.37905
G1 X95.732 Y86.714 E7.42545
G1 X95.732 Y85.016 E7.53885
G1 X95.196 Y85.973 F7800.000
G1 X95.196 Y84.436 E7.64156 F540.000
G1 X103.181 Y84.436 E8.17496
G1 X106.797 Y86.092 E8.44072
G1 X106.761 Y86.332 E8.45688
G1 X106.046 Y86.426 E8.50505
G1 X105.472 Y86.664 E8.54656
G1 X104.979 Y87.042 E8.58807
G1 X104.601 Y87.535 E8.62958
G1 X104.373 Y88.086 E8.66945
G1 X104.281 Y88.720 E8.71222
G1 X104.363 Y89.341 E8.75408
G1 X104.608 Y89.931 E8.79677
G1 X104.982 Y90.411 E8.83740
G1 X105.472 Y90.786 E8.87865
G1 X106.046 Y91.024 E8.92016
G1 X106.662 Y91.105 E8.96167
G1 X107.279 Y91.024 E9.00319
G1 X107.853 Y90.786 E9.04470
G1 X108.346 Y90.408 E9.08621
G1 X108.724 Y89.915 E9.12772
G1 X108.868 Y89.568 E9.15285
G1 X109.127 Y89.619 E9.17047
G1 X109.127 Y93.981 E9.46186
G1 X108.868 Y94.032 E9.47948
G1 X108.724 Y93.685 E9.50461
G1 X108.346 Y93.192 E9.54612
G1 X107.853 Y92.814 E9.58763
G1 X107.274 Y92.574 E9.62949
G1 X106.638 Y92.498 E9.67227
G1 X106.046 Y92.576 E9.71213
G1 X105.472 Y92.814 E9.75364
G1 X104.979 Y93.192 E9.79515
G1 X104.601 Y93.685 E9.83667
G1 X104.363 Y94.259 E9.87818
G1 X104.289 Y94.820 E9.91600
G1 X104.289 Y105.180 E10.60807
G1 X104.363 Y105.741 E10.64589
G1 X104.601 Y106.315 E10.68741
G1 X104.979 Y106.808 E10.72892
G1 X105.472 Y107.186 E10.77043
G1 X106.046 Y107.424 E10.81194
G1 X106.668 Y107.506 E10.85380
G1 X107.301 Y107.415 E10.89658
G1 X107.853 Y107.186 E10.93644
G1 X108.346 Y106.808 E10.97795
G1 X108.724 Y106.315 E11.01946
G1 X108.868 Y105.968 E11.04459
G1 X109.127 Y106.019 E11.06221
G1 X109.127 Y110.381 E11.35360
G1 X108.868 Y110.432 E11.37122
G1 X108.733 Y110.108 E11.39470
G1 X108.350 Y109.595 E11.43748
G1 X107.853 Y109.214 E11.47933
G1 X107.274 Y108.974 E11.52119
G1 X106.638 Y108.898 E11.56397
G1 X106.046 Y108.976 E11.60383
G1 X105.472 Y109.214 E11.64534
G1 X104.979 Y109.592 E11.68685
G1 X104.601 Y110.085 E11.72836
G1 X104.373 Y110.636 E11.76823
G1 X104.281 Y111.270 E11.81101
G1 X104.363 Y111.891 E11.85286
G1 X104.601 Y112.465 E11.89437
G1 X104.979 Y112.958 E11.93588
G1 X105.472 Y113.336 E11.97740
G1 X106.046 Y113.574 E12.01891
G1 X106.761 Y113.668 E12.06707
G1 X106.797 Y113.908 E12.08323
G1 X103.181 Y115.564 E12.34899
G1 X95.196 Y115.564 E12.88239
G1 X95.196 Y114.027 E12.98510
G1 X93.680 Y114.027 E13.08638
G1 X92.915 Y113.926 E13.13794
G1 X92.253 Y113.652 E13.18581
G1 X91.685 Y113.216 E13.23367
G1 X91.273 Y112.680 E13.27883
G1 X90.974 Y111.980 E13.32965
G1 X90.881 Y111.275 E13.37717
G1 X90.974 Y110.565 E13.42504
G1 X91.248 Y109.903 E13.47290
G1 X91.685 Y109.334 E13.52077
G1 X92.253 Y108.898 E13.56864
G1 X92.915 Y108.624 E13.61650
G1 X93.680 Y108.523 E13.66806
G1 X95.196 Y108.523 E13.76934
G1 X95.196 Y91.477 E14.90812
G1 X93.680 Y91.477 E15.00940
G1 X92.915 Y91.376 E15.06096
G1 X92.253 Y91.102 E15.10883
G1 X91.685 Y90.666 E15.15669
G1 X91.248 Y90.097 E15.20456
G1 X90.974 Y89.435 E15.25243
G1 X90.881 Y88.725 E15.30029
G1 X90.974 Y88.020 E15.34782
G1 X91.273 Y87.320 E15.39863
G1 X91.685 Y86.784 E15.44379
G1 X92.253 Y86.348 E15.49166
G1 X92.915 Y86.074 E15.53952
G1 X93.680 Y85.973 E15.59108
G1 X95.151 Y85.973 E15.68935
G1 X94.661 Y85.438 F7800.000
G1 X94.661 Y83.900 E15.79207 F378.000
G1 X103.297 Y83.900 E16.36906
G1 X108.157 Y86.126 E16.72612
G1 X108.782 Y86.606 E16.77876
G1 X109.258 Y87.226 E16.83103
G1 X109.557 Y87.949 E16.88330
G1 X109.662 Y88.745 E16.93689
G1 X109.662 Y111.255 E18.44073
G1 X109.557 Y112.051 E18.49432
G1 X109.258 Y112.774 E18.54659
G1 X108.806 Y113.362 E18.59617
G1 X108.155 Y113.875 E18.65153
G1 X103.297 Y116.100 E19.00847
G1 X94.661 Y116.100 E19.58546
G1 X94.661 Y114.563 E19.68817
G1 X93.645 Y114.563 E19.75601
G1 X92.775 Y114.448 E19.81463
G1 X91.983 Y114.120 E19.87192
G1 X91.303 Y113.598 E19.92920
G1 X90.807 Y112.952 E19.98356
G1 X90.452 Y112.123 E20.04380
G1 X90.340 Y111.275 E20.10097
G1 X90.452 Y110.425 E20.15826
G1 X90.781 Y109.633 E20.21554
G1 X91.303 Y108.952 E20.27283
G1 X91.983 Y108.430 E20.33012
G1 X92.775 Y108.102 E20.38741
G1 X93.645 Y107.987 E20.44602
G1 X94.661 Y107.987 E20.51386
G1 X94.661 Y92.013 E21.58108
G1 X93.645 Y92.013 E21.64892
G1 X92.775 Y91.898 E21.70754
G1 X91.983 Y91.570 E21.76483
G1 X91.303 Y91.048 E21.82211
G1 X90.781 Y90.367 E21.87940
G1 X90.452 Y89.575 E21.93669
G1 X90.340 Y88.725 E21.99398
G1 X90.452 Y87.877 E22.05114
G1 X90.807 Y87.048 E22.11138
G1 X91.303 Y86.402 E22.16574
G1 X91.983 Y85.880 E22.22303
G1 X92.775 Y85.552 E22.28032
G1 X93.645 Y85.438 E22.33893
G1 X94.616 Y85.438 E22.40377
G1 X94.961 Y85.438 F7800.000
G1 X96.053 Y86.096 F7800.000
G1 X103.691 Y93.734 E23.13347 F1080.000
G1 X103.938 Y93.215 E23.17229
G1 X96.055 Y85.332 E23.92554
G1 X96.782 Y85.293 E23.97475
G1 X104.271 Y92.782 E24.69028
G1 X104.665 Y92.410 E24.72689
G1 X97.548 Y85.293 E25.40689
G1 X98.314 Y85.293 E25.45865
G1 X105.099 Y92.078 E26.10693
G1 X103.556 Y89.769 F7800.000
G1 X99.080 Y85.293 E26.53458 F1080.000
G1 X99.846 Y85.293 E26.58633
G1 X103.420 Y88.867 E26.92781
G1 X103.507 Y88.188 E26.97407
G1 X100.612 Y85.293 E27.25066
G1 X101.378 Y85.293 E27.30241
G1 X103.684 Y87.599 E27.52274
G1 X103.929 Y87.078 E27.56165
G1 X102.144 Y85.293 E27.73217
G1 X102.957 Y85.340 E27.78717
G1 X104.262 Y86.644 E27.91180
G1 X104.371 Y85.987 E27.95679
G1 X104.653 Y86.269 E27.98374
G1 X96.632 Y87.441 F7800.000
G1 X103.505 Y94.314 E28.64043 F1080.000
G1 X103.432 Y95.007 E28.68750
G1 X96.846 Y88.421 E29.31674
G1 X96.801 Y89.142 E29.36556
G1 X103.432 Y95.773 E29.99910
G1 X103.432 Y96.539 E30.05085
G1 X96.645 Y89.752 E30.69936
G1 X96.420 Y90.293 E30.73896
G1 X103.432 Y97.305 E31.40895
G1 X103.432 Y98.071 E31.46070
G1 X96.087 Y90.726 E32.16247
G1 X96.053 Y91.459 E32.21199
G1 X103.432 Y98.837 E32.91699
G1 X103.432 Y99.603 E32.96874
G1 X96.053 Y92.225 E33.67374
G1 X96.053 Y92.991 E33.72550
G1 X103.432 Y100.369 E34.43050
G1 X103.432 Y101.135 E34.48225
G1 X96.053 Y93.757 E35.18725
G1 X96.053 Y94.523 E35.23901
G1 X103.432 Y101.901 E35.94401
G1 X103.432 Y102.668 E35.99576
G1 X96.053 Y95.289 E36.70076
G1 X96.053 Y96.055 E36.75252
G1 X103.432 Y103.434 E37.45752
G1 X103.432 Y104.200 E37.50927
G1 X96.053 Y96.821 E38.21427
G1 X96.053 Y97.587 E38.26603
G1 X103.432 Y104.966 E38.97103
G1 X103.489 Y105.789 E39.02675
G1 X96.053 Y98.353 E39.73718
G1 X96.053 Y99.119 E39.78893
G1 X103.912 Y106.978 E40.53982
G1 X104.810 Y107.875 F7800.000
G1 X105.321 Y108.386 E40.58864 F1080.000
G1 X104.842 Y108.674 E40.62635
G1 X96.053 Y99.885 E41.46609
G1 X96.053 Y100.651 E41.51785
G1 X104.409 Y109.007 E42.31617
